!!!!SEGMENT: pl-kk--kk-i-8--021_anonim--rex-gloriose-martyrum-corona.krn
!!!cenid: 16xx:1162
!!!COM: Anonim
!!!COM-rismID: pe30004985
!!!CDT:
!!!CNT:
!!!OTL: Rex gloriose Martyrum Corona
!!!PDT:
!!!AGN: Sacred
!!!YEC: Copyright 2022 Narodowy Instytut Fryderyka Chopina (https://polishscores.org)
!!!YEM: License CC-BY-4.0 (https://creativecommons.org/licenses/by/4.0)
!!!SMS-siglum: PL-Kk
!!!SMS-shelfmark: Kk.I.8
!!!SMS-shelfwork: 021 W
!!!SMS-variant:
!!!SMS-altvar:
!!!NIFC-rismSourceID: 1001148105
!!!NIFC-rismChildID: 1001148874
!!!NIFC-islandoraID: pl-kk:2296
!!!URL-pdf-islandora: https://repozytorium.nifc.pl/islandora/object/pl-kk%3A2296/datastream/PDF/view
!!!URL-scan: https://polish.musicsources.pl/pl/lokalizacje/galeria/rekopisy/6141 @EN{Scan on Polish Music Sources Website} @PL{Skany w portalu Dziedzictwo Muzyki Polskiej w otwartym dostępie}
!!!IIIF:
!!!ONB-nifc: UWAGA: A (skan 0011), T1 (0035), T2 (0058), B (0081). Trzecia pięciolinia. Następny utwór: Iste Confessor
!!!AIN: 1 alto 1 bass 2 tenor
!!!key:
**kern	**text	**text	**text	**text	**kern	**text	**text	**text	**text	**kern	**text	**text	**text	**text	**kern	**text	**text	**text	**text
*part4	*	*	*	*	*part3	*	*	*	*	*part2	*	*	*	*	*part1	*	*	*	*
*staff4	*	*	*	*	*staff3	*	*	*	*	*staff2	*	*	*	*	*staff1	*	*	*	*
*Ibass	*	*	*	*	*Itenor	*	*	*	*	*Itenor	*	*	*	*	*Ialto	*	*	*	*
*I"[BASSVS.]	*	*	*	*	*I"[TENOR 2dus.]	*	*	*	*	*I"[Tenore 1mo]	*	*	*	*	*I"[alto.]	*	*	*	*
*I'B	*	*	*	*	*I'T 2	*	*	*	*	*I'T 1	*	*	*	*	*I'A	*	*	*	*
*clefF4	*	*	*	*	*clefC4	*	*	*	*	*clefC1	*	*	*	*	*clefC3	*	*	*	*
*ok[b-b-]	*	*	*	*	*	*	*	*	*	*ok[b-e-e-]	*	*	*	*	*	*	*	*	*
*k[b-]	*	*	*	*	*k[b-e-]	*	*	*	*	*k[b-e-]	*	*	*	*	*k[b-e-]	*	*	*	*
*c:	*	*	*	*	*c:	*	*	*	*	*c:	*	*	*	*	*c:	*	*	*	*
*M2/2	*	*	*	*	*M2/2	*	*	*	*	*M2/2	*	*	*	*	*M2/2	*	*	*	*
*met(c|)	*	*	*	*	*met(c|)	*	*	*	*	*met(c|)	*	*	*	*	*met(c|)	*	*	*	*
=1	=1	=1	=1	=1	=1	=1	=1	=1	=1	=1	=1	=1	=1	=1	=1	=1	=1	=1	=1
!LO:TX:t=P:problem=przed kluczem inicjał R	!	!	!	!	!LO:TX:t=P:problem=przed kluczem inicjał R	!	!	!	!	!LO:TX:t=P:problem=przed kluczem inicjał R	!	!	!	!	!LO:TX:t=P:problem=przed kluczem inicjał R	!	!	!	!
2r	.	.	.	.	2r	.	.	.	.	2r	.	.	.	.	2r	.	.	.	.
4r	.	.	.	.	4r	.	.	.	.	4r	.	.	.	.	4r	.	.	.	.
!	!	!	!	!	!	!	!	!	!	!	!	!	!	!	!LO:TX:a:t=P:problem=♭ above	!	!	!	!
4C/	Rex	Au-	Tu	De-	4c\	Rex	Au-	Tu	De-	4g/	Rex	Au-	Tu	De-	4e-X\	Rex	Aü-	Tu	De-
=2	=2	=2	=2	=2	=2	=2	=2	=2	=2	=2	=2	=2	=2	=2	=2	=2	=2	=2	=2
!	!	!	!	!	!LO:TX:a:t=P:problem=♭ above	!	!	!	!	!	!	!	!	!	!	!	!	!	!
4c\	glo-	-rem	Vin-	-o	4e-X\	glo-	-rem	Vin-	-o	4cc\	glo-	-rem	Vin-	-o	4g\	glo-	-rem	Vin-	-o
4B-\	-ri-	be-	-cis	P(at)-	4d\	-ri-	be-	-ciſ	Pat-	4dd\	-ri-	be-	-ciſ	Pat-	4g\	-ri-	be-	-ciſ	Pat-
4c\	-o-	-nig-	in-	-ri	4c\	-o-	-nig-	in-	-ri	(8ee-X\L	-o-	-nig-	in-	-ri	4e-X\	-o-	-nig-	in-	-ri
.	.	.	.	.	.	.	.	.	.	8dd\J)	.	.	.	.	.	.	.	.	.
!LO:TX:a:t=P:problem=♭ above	!	!	!	!	!	!	!	!	!	!	!	!	!	!	!	!	!	!	!
4A-X\	-ſe	-na(m)	-(te)r	Sit	4c\	-ſe	-na(m)	-ter	Sit	(8cc\L	-Se	-na(m)	-ter	Sit	4f\	-ſe	-na(m)	-(te)r	sit
.	.	.	.	.	.	.	.	.	.	8dd\J)	.	.	.	.	.	.	.	.	.
=3	=3	=3	=3	=3	=3	=3	=3	=3	=3	=3	=3	=3	=3	=3	=3	=3	=3	=3	=3
!	!	!	!	!	!	!	!	!	!	!LO:N:acc=#	!	!	!	!	!	!	!	!	!
4.G\	Mar-	p(ro)-	Mar-	gl(o-	4.d\	Mar-	p(ro)-	Mar-	gl(o-	4.bn\	Mar-	p(ro)-	Mar-	glo-	4.g\	Mar-	pro-	Mar-	gl(o-
8G\	-ty-	-ti-	-ty-	-ri)-	8c\	-ty-	-ti-	-ty-	-ri)-	8cc\	-ty-	-ti-	-ty-	-ri-	8g\	-ty-	-ti-	-ty-	-ri)-
!	!	!	!	!	!LO:TX:a:t=P:problem=# above	!	!	!	!	!	!	!	!	!	!	!	!	!	!
!	!	!	!	!	!LO:N:acc=#	!	!	!	!	!	!	!	!	!	!	!	!	!	!
4G\	-ru(m)	-n(us)	-res	-a	4Bn,<\	-ru(m)	-n(us)	-rês	-a	4dd\	-ru(m)	-n(us)	-rês	-a	4g,<\	-ru(m)	-n(us)	-rês	-a
!LO:TX:t=P:problem=ut supra odnosi się do tożsamej doksologii z zapisanego powyżej hymnu "Rex gloriose Martyrum"	!	!	!	!	!LO:TX:t=P:problem=ut supra odnosi się do tożsamej doksologii z zapisanego powyżej hymnu "Rex gloriose Martyrum"	!	!	!	!	!LO:TX:t=P:problem=ut supra odnosi się do tożsamej doksologii z zapisanego powyżej hymnu "Rex gloriose Martyrum"	!	!	!	!	!	!	!	!	!
4E-X\	Co-	in-	par-	ut	4c\	Co-	in-	par-	ut	4cc\	Co-	in-	par-	ut	4g\	Co-	in-	par-	e-
=4	=4	=4	=4	=4	=4	=4	=4	=4	=4	=4	=4	=4	=4	=4	=4	=4	=4	=4	=4
4F\	-ro-	-ten-	-ciſ-	Su-	4c\	-ro-	-ten-	-ciſ-	Su-	4a-X\	-ro-	-ten-	-ciſ-	Su-	4f\	-ro-	-tên-	-ciſ-	-i(us)-
!	!	!	!	!	!	!	!	!	!	!	!	!	!	!	!LO:TX:a:t=P:problem=♭ above	!	!	!	!
4G\	-na	-de	-q(ue)	-p(ra)	4B-X\	-na	-dê	-q(ue)	-p(ra)	4g/	-na	-de	-q(ue)	-p(ra)	4e-X\	-na	-de	-q(ue)	-q(ue)
4A-X\	Con-	Noſ-	Con-	.	4c\	Con-	N(os-	Con-	.	4.f/	Con-	n(os-	Con-	.	4e-\	con-	noſ-	Con-	So-
4B-\	-fi-	-tris	-feſ-	.	4B-\	-fi-	-t)ris	-feſ-	.	.	.	.	.	.	4d\	-fi-	-tris	-feſ-	-li
.	.	.	.	.	.	.	.	.	.	8f/	-fi-	-t)ris	-feſ-	.	.	.	.	.	.
=5	=5	=5	=5	=5	=5	=5	=5	=5	=5	=5	=5	=5	=5	=5	=5	=5	=5	=5	=5
!LO:SIC:v:o=4.E\	!	!	!	!	!LO:TX:a:t=P:problem=♭ above	!	!	!	!	!	!	!	!	!	!	!	!	!	!
4.E-	-ten-	Vo-	-so-	.	4.B-X\	-ten-	Vo-	-so-	.	4.g/	-ten-	Vo-	-so-	.	4.e-\	-ten-	Vo-	-so-	fi-
!LO:SIC:v:o=8E\	!	!	!	!	!	!	!	!	!	!	!	!	!	!	!	!	!	!	!
8E-	-ti-	-ci-	-ri-	.	8B-\	-ti-	-ci-	-ri-	.	8f/	-ti-	-ci-	-ri-	.	8f\	-ti-	-ci-	-ri-	-li-
!LO:SIC:v:o=4E\	!	!	!	!	!	!	!	!	!	!	!	!	!	!	!	!	!	!	!
4E-	-u(m)	-b(us)	-b(us)	.	4B-\	-u(m)	-b(us)	-b(us)	.	4e-,</	-u(m)	-b(us)	-b(us)	.	4g,<\	-u(m)	-b(us)	-b(us)	-o
!LO:SIC:v:o=4E\	!	!	!	!	!	!	!	!	!	!	!	!	!	!	!	!	!	!	!
4E-	qui	Tro-	Tu	.	4G/	qui	Tro-	Tu	.	4b-\	qui	Tro-	Tu	.	4g\	q(ui)	tro-	Tu	cu(m)
=6	=6	=6	=6	=6	=6	=6	=6	=6	=6	=6	=6	=6	=6	=6	=6	=6	=6	=6	=6
!LO:SIC:v:o=4E\	!	!	!	!	!	!	!	!	!	!	!	!	!	!	!	!	!	!	!
4E-	reſ-	-phae-	Vin-	.	4A/	rêſ-	-phae-	Vin-	.	4cc\	reſ-	-phae-	Vin-	.	4f\	reſ-	phae-	Vin-	Sp(i-
!	!	!	!	!	!LO:TX:a:t=P:problem=♮ above	!	!	!	!	!	!	!	!	!	!	!	!	!	!
4D/	-pu-	-a	-ce	.	4Bn\	-pu-	-a	-ce	.	4dd\	-pu-	-a	-ce	.	4f\	-pu-	-a	-ce	-ri-
4C/	-en-	ſac-	Noſ-	.	(8c\L	-ên-	ſac-	noſ-	.	(8ee-X\L	-en-	Sac-	n(os-	.	4e-\	-en-	Sac-	N(os-	-t)u
.	.	.	.	.	8B\J)	.	.	.	.	8dd\J)	.	.	.	.	.	.	.	.	.
4F\	-tes	-ra	-tra	.	(8c\L	-teſ	-ra	-tra	.	(8ee-\L	-teſ	-ra	-t)ra	.	4a-X\	-tes	-ra	-t)ra	pa-
.	.	.	.	.	8d\J)	.	.	.	.	8ff\J)	.	.	.	.	.	.	.	.	.
=7	=7	=7	=7	=7	=7	=7	=7	=7	=7	=7	=7	=7	=7	=7	=7	=7	=7	=7	=7
!	!	!	!	!	!LO:TX:a:t=P:problem=♮ above	!	!	!	!	!	!	!	!	!	!	!	!	!	!
4.G\	ter-	pan-	Cri-	.	4.Bn\	ter-	pan-	Cri-	.	4.dd\	ter-	pan-	Cri-	.	4.g\	ter-	pan-	Cri-	-ra-
8G\	-rê-	-gi-	-mi-	.	8c\	-rê-	-gi-	-mi-	.	8cc\yy	-re-	-gi-	-mi-	.	8g\	-re-	-gi-	-mi-	-cli-
4G\	-a	-m(us)	-na	.	4d\	-a	-m(us)	-na	.	4bn\	-a	-m(us)	-na	.	4g,<\	-a	-m(us)	-na	-to
!LO:SIC:v:o=4E\	!	!	!	!	!	!	!	!	!	!	!	!	!	!	!	!	!	!	!
4E-	per-	i-	lar-	.	4G/	per-	i-	lar-	.	4ee-X\	per-	i-	lar-	.	4g\	p(er)-	i-	lar-	re-
=8	=8	=8	=8	=8	=8	=8	=8	=8	=8	=8	=8	=8	=8	=8	=8	=8	=8	=8	=8
(8F\L	-du-	-gnoſ-	-gi-	.	4A-X/	-du-	-gnoſ-	-gi-	.	4dd\	-du-	-gnoſ-	-gi-	.	4f\	-du-	-gnoſ-	-gi-	-gnans
8G\J)	.	.	.	.	.	.	.	.	.	.	.	.	.	.	.	.	.	.	.
!LO:TX:a:t=P:problem=♭ above	!	!	!	!	!	!	!	!	!	!	!	!	!	!	!LO:TX:a:t=P:problem=♭ above	!	!	!	!
4A-X\	-ciſ	-ce	-tor	.	4A-/	-cis	-ce	-tor	.	4cc\	-cis	-ce	-tor	.	4e-X\	-cis	-ce	-tor	p(er)
4F\	ad	quod	in-	.	4A-/	ad	quod	in-	.	4cc\	ad	q(uo)d	in-	.	4d\	ad	q(uo)d	in-	o-
!	!	!	!	!	!	!	!	!	!	!LO:TX:a:t=P:problem=♮ above	!	!	!	!	!	!	!	!	!
4G\	Cae-	de-	-dul-	.	4G/	Cae-	de-	-dul-	.	4bn\	Cae-	de-	-dul-	.	4d\	Cae-	de-	-dul-	-mne
=9	=9	=9	=9	=9	=9	=9	=9	=9	=9	=9	=9	=9	=9	=9	=9	=9	=9	=9	=9
!	!	!	!	!	!	!	!	!	!	!	!	!	!	!	!LO:TX:t=P:problem=wysokość poprawiana	!	!	!	!
4.C/	-les-	-li-	-gen-	.	4.G/	-les-	-li-	-gen-	.	4.cc\	-les-	-li-	-gên-	.	4.en/	-les-	-li-	-gên-	Sae-
8C/	-ti-	-qvi-	-ti-	.	8G/	-ti-	-qvi-	-ti-	.	8cc\	-ti-	-qvi-	-ti-	.	8e/	-ti-	-qvi-	-ti-	-cu-
4C/	-a	-m(us)	-ae	.	4G,</	-a	-m(us)	-ae	.	4cc\	-a	-m(us)	-ae	.	4e,/	-a	-m(us)	-ae	-la
*	*ij	*ij	*ij	*	*	*ij	*ij	*	*	*	*ij	*ij	*ij	*	*	*	*	*	*
4E-X\	qui	Tro-	Tu	.	4G/	qui	Tro-	.	.	4b-X\	qui	Tro-	Tu	.	4g\	q(ui)	tro-	Tu	Cu(m)
=10	=10	=10	=10	=10	=10	=10	=10	=10	=10	=10	=10	=10	=10	=10	=10	=10	=10	=10	=10
!LO:SIC:v:o=4E\	!	!	!	!	!	!	!	!	!	!	!	!	!	!	!	!	!	!	!
4E-	reſ-	-phae-	Vin-	.	4A\	rêſ-	-phae-	.	.	4cc\	reſ-	-phae-	Vin-	.	4f\	reſ-	-phae-	Vin-	Sp(i-
!	!	!	!	!	!LO:TX:a:t=P:problem=# above	!	!	!	!	!	!	!	!	!	!	!	!	!	!
!	!	!	!	!	!LO:N:acc=#	!	!	!	!	!	!	!	!	!	!	!	!	!	!
4D/	-pu-	-a	-ce	.	4Bn\	-pu-	-a	.	.	4dd\	-pu-	-a	-ce	.	4f\	-pu-	-a	-ce	-ri-
4C/	-en-	ſac-	Noſ-	.	(8c\L	-ên-	ſac-	.	.	(8ee-\L	-en-	Sac-	n(os-	.	4e-\	-en-	Sac-	N(os-	-t)u
.	.	.	.	.	8B\J)	.	.	.	.	8dd\J)	.	.	.	.	.	.	.	.	.
4F\	-tes	-ra	-tra	.	(8c\L	-teſ	-ra	.	.	(8ee-\L	-teſ	-ra	-t)ra	.	4a-X\	-tes	-ra	-t)ra	Pa-
.	.	.	.	.	8d\J)	.	.	.	.	8ff\J)	.	.	.	.	.	.	.	.	.
=11	=11	=11	=11	=11	=11	=11	=11	=11	=11	=11	=11	=11	=11	=11	=11	=11	=11	=11	=11
*	*	*	*	*	*	*	*	*	*	*	*	*	*	*	*	*ij	*ij	*ij	*
!	!	!	!	!	!LO:N:acc=#	!	!	!	!	!	!	!	!	!	!	!	!	!	!
!	!	!	!	!	!LO:TX:a:t=P:problem=# above	!	!	!	!	!	!	!	!	!	!	!	!	!	!
4.G\	ter-	pan-	Cri-	.	4.Bn\	ter-	pan-	.	.	4.dd\	ter-	pan-	Cri-	.	4.g\	ter-	pan-	Cri-	-ra-
8G\	-rê-	-gi-	-mi-	.	8c\	-rê-	-gi-	.	.	8cc\	-re-	-gi-	-mi-	.	8g\	-re-	-gi-	-mi-	-cli-
!	!	!	!	!	!	!	!	!	!	!LO:N:acc=#	!	!	!	!	!LO:TX:t=P:problem=wysokość poprawiana	!	!	!	!
4G\	-a	-m(us)	-na	.	4.d\	-a	-m(us)	.	.	4bn\	-a	-m(us)	-na	.	4g,<\	-a	-m(us)	-na	-to
*	*	*	*	*	*	*	*	*	*	*	*	*	*	*	*	*	*	*	*ij
!LO:SIC:v:o=4E\	!	!	!	!	!	!	!	!	!	!	!	!	!	!	!	!	!	!	!
4E-	per-	i-	lar-	.	.	.	.	.	.	4ee-\	per-	i-	lar-	.	4g\	p(er)-	i-	lar-	re-
.	.	.	.	.	8G/	per-	i-	.	.	.	.	.	.	.	.	.	.	.	.
=12	=12	=12	=12	=12	=12	=12	=12	=12	=12	=12	=12	=12	=12	=12	=12	=12	=12	=12	=12
!	!	!	!	!	!LO:TX:a:t=P:problem=♭ above	!	!	!	!	!	!	!	!	!	!	!	!	!	!
4F\	-du-	-gnoſ-	-gi-	.	4A-X/	-du-	-gnoſ-	.	.	4dd\	-du-	-gnoſ-	-gi-	.	4f\	-du-	-gnoſ-	-gi-	-gnans
!	!	!	!	!	!	!	!	!	!	!	!	!	!	!	!LO:TX:a:t=P:problem=♭ above	!	!	!	!
4A-X\	-ciſ	-ce	-tor	.	4A-/	-cis	-ce	.	.	4cc\	-cis	-ce	-tor	.	4e-X\	-cis	-ce	-tor	p(er)
4F\	ad	quod	in-	.	4A-/	ad	quod	.	.	4.cc\	ad	q(uo)d	in-	.	4d\	ad	q(uo)d	in-	o-
4G\	Cae-	de-	-dul-	.	4G/	Cae-	de-	.	.	.	.	.	.	.	4d\	Cae-	de-	-dul-	-mne
.	.	.	.	.	.	.	.	.	.	8b\	Cae-	de-	-dul-	.	.	.	.	.	.
=13	=13	=13	=13	=13	=13	=13	=13	=13	=13	=13-	=13	=13	=13	=13	=13	=13	=13	=13	=13
!	!	!	!	!	!	!	!	!	!	!	!	!	!	!	!LO:TX:a:t=P:problem=♮ above	!	!	!	!
!	!	!	!	!	!	!	!	!	!	!	!	!	!	!	!LO:TX:t=P:problem=wysokość poprawiana	!	!	!	!
4.C/	-les-	-li-	-gen-	.	4.G/	-les-	-li-	.	.	4.cc\	-les-	-li-	-gên-	.	4.en/	-les-	-li-	-gên-	Sae-
8C/	-ti-	-qvi-	-ti-	.	8G/	-ti-	-qvi-	.	.	8cc\	-ti-	-qvi-	-ti-	.	8e/	-ti-	-qvi-	-ti-	-cu-
2C/	-a	-m(us)	-ae	.	2G/	-a	-m(us)	.	.	2cc\	-a	-m(us)	-ae	.	2e\	-a	-m(us)	-ae	-la
*	*Xij	*Xij	*Xij	*	*	*Xij	*Xij	*	*	*	*Xij	*Xij	*Xij	*	*	*Xij	*Xij	*Xij	*Xij
=14||	=14||	=14||	=14||	=14||	=14||	=14||	=14||	=14||	=14||	=14||	=14||	=14||	=14||	=14||	=14||	=14||	=14||	=14||	=14||
*M2/2	*	*	*	*	*M2/2	*	*	*	*	*	*	*	*	*	*	*	*	*	*
*met(c|)	*	*	*	*	*met(c)	*	*	*	*	*	*	*	*	*	*	*	*	*	*
!	!	!	!	!	!	!	!	!	!	!	!	!	!	!	!LO:TX:a:t=P:problem=♭ above	!	!	!	!
!	!	!	!	!	!	!	!	!	!	!	!	!	!	!	!LO:TX:t=P:problem=zakoczenie poprawione, dopisane poniżej	!	!	!	!
4.A-X\	A-	.	.	.	4.c\	a-	.	.	.	4.a-X\	A-	.	.	.	4.e-X\	A-	.	.	.
8G\	.	.	.	.	8B-\	.	.	.	.	8b-\	-men	.	.	.	8e-\	-men	.	.	.
*	*	*	*	*	*	*	*	*	*	*	*ij	*	*	*	*	*ij	*	*	*
4F\	.	.	.	.	4A-X/	.	.	.	.	4cc\	A-	.	.	.	4f\	A-	.	.	.
4En\	.	.	.	.	4G/	.	.	.	.	4cc\	-men	.	.	.	4g\	-men	.	.	.
*	*	*	*	*	*	*	*	*	*	*	*Xij	*	*	*	*	*Xij	*	*	*
=15	=15	=15	=15	=15	=15-	=15	=15	=15	=15	=15	=15	=15	=15	=15	=15	=15	=15	=15	=15
!	!	!	!	!	!LO:TX:a:t=P:problem=♭ above	!	!	!	!	!	!	!	!	!	!	!	!	!	!
1F	.	.	.	.	1A-X	.	.	.	.	1cc	A-	.	.	.	1f	A-	.	.	.
=16-	=16	=16	=16	=16	=16-	=16	=16	=16	=16	=16-	=16	=16	=16	=16	=16-	=16	=16	=16	=16
!LO:N:vis=0	!	!	!	!	!LO:N:vis=0	!	!	!	!	!	!	!	!	!	!	!	!	!	!
1C;	-men	.	.	.	1G;	-men	.	.	.	1cc	-men	.	.	.	1en	-men	.	.	.
!LO:PB:g=original	!	!	!	!	!LO:PB:g=original	!	!	!	!	!LO:PB:g=original	!	!	!	!	!LO:PB:g=original	!	!	!	!
==	==	==	==	==	==	==	==	==	==	==	==	==	==	==	==	==	==	==	==
*-	*-	*-	*-	*-	*-	*-	*-	*-	*-	*-	*-	*-	*-	*-	*-	*-	*-	*-	*-
!!!system-decoration: [(s1,s2,s3,s4)]
!!!RDF**kern: < = below
!!!ENC: Marta Chmielewska
!!!END: 2021-04-06
!!!ENC: Kamil Watkowski
!!!END: 2021-03-27
